X:4371
T: Morisco
O:england
C: Trad
M: 4/4
L: 1/8
Q:1/4= 196
K:G
GA |: B2G2G2A2|B2G2 cB A2|B2G2 G2A2|FG FE D4|
B2G2 G2A2|B2G2 cB A2|BA G2 A2F2|1 G4 G3 A:|2 G4 d2c2|:
Bc d2 d2 e2|d4 d2c2|B2G2 G2 A2|FG FE D4|
Bc d2 d2 e2|d4 d2c2|BA G2 A2 F2|1 G4 d2c2:|2 G4G4||


